src/lib/packages/icons/src/assets/line/alarm-plus.svg

<svg width="24" height="24" viewBox="0 0 24 24" fill="none" xmlns="http://www.w3.org/2000/svg">
<path d="M21.5359 5.52505C21.3889 5.67505 21.194 5.75002 21 5.75002C20.811 5.75002 20.6211 5.67903 20.4751 5.53603L18.4751 3.57607C18.1801 3.28607 18.1751 2.81104 18.4641 2.51504C18.7551 2.21904 19.2289 2.21405 19.5259 2.50405L21.5259 4.46401C21.8199 4.75401 21.8249 5.22905 21.5359 5.52505ZM5.53005 3.53005C5.82305 3.23705 5.82305 2.76202 5.53005 2.46902C5.23705 2.17602 4.76202 2.17602 4.46902 2.46902L2.46902 4.46902C2.17602 4.76202 2.17602 5.23705 2.46902 5.53005C2.61502 5.67605 2.80705 5.75002 2.99905 5.75002C3.19105 5.75002 3.38308 5.67705 3.52908 5.53005L5.53005 3.53005ZM17.136 19.0691L18.531 20.471C18.824 20.765 18.8221 21.24 18.5291 21.532C18.3831 21.678 18.191 21.75 18 21.75C17.808 21.75 17.615 21.6761 17.469 21.5291L15.812 19.864C14.658 20.426 13.368 20.75 12 20.75C10.632 20.75 9.34301 20.426 8.18801 19.864L6.53103 21.5291C6.38503 21.6761 6.19202 21.75 6.00002 21.75C5.80902 21.75 5.61697 21.677 5.47097 21.532C5.17797 21.24 5.17602 20.765 5.46902 20.471L6.86404 19.0691C4.67904 17.4771 3.25002 14.905 3.25002 12C3.25002 7.17502 7.17502 3.25002 12 3.25002C16.825 3.25002 20.75 7.17502 20.75 12C20.75 14.905 19.321 17.4771 17.136 19.0691ZM12 19.25C15.998 19.25 19.25 15.998 19.25 12C19.25 8.00202 15.998 4.75002 12 4.75002C8.00202 4.75002 4.75002 8.00202 4.75002 12C4.75002 15.998 8.00202 19.25 12 19.25ZM14.5 11.25H12.75V9.50002C12.75 9.08602 12.414 8.75002 12 8.75002C11.586 8.75002 11.25 9.08602 11.25 9.50002V11.25H9.50002C9.08602 11.25 8.75002 11.586 8.75002 12C8.75002 12.414 9.08602 12.75 9.50002 12.75H11.25V14.5C11.25 14.914 11.586 15.25 12 15.25C12.414 15.25 12.75 14.914 12.75 14.5V12.75H14.5C14.914 12.75 15.25 12.414 15.25 12C15.25 11.586 14.914 11.25 14.5 11.25Z" fill="currentColor"/>
</svg>

<svg xmlns="http://www.w3.org/2000/svg" width="24" height="24" fill="none"><path fill="currentColor" d="M21.536 5.525a.749.749 0 0 1-1.06.011l-2-1.96a.751.751 0 0 1 1.05-1.072l2 1.96c.294.29.299.765.01 1.061ZM5.53 3.53a.75.75 0 1 0-1.061-1.061l-2 2a.75.75 0 0 0 1.06 1.061l2.001-2Zm11.606 15.54 1.395 1.401a.75.75 0 1 1-1.062 1.058l-1.657-1.665A8.678 8.678 0 0 1 12 20.75a8.681 8.681 0 0 1-3.812-.886l-1.657 1.665a.747.747 0 0 1-1.06.003.75.75 0 0 1-.002-1.061l1.395-1.402C4.679 17.477 3.25 14.905 3.25 12c0-4.825 3.925-8.75 8.75-8.75s8.75 3.925 8.75 8.75c0 2.905-1.429 5.477-3.614 7.07ZM12 19.25c3.998 0 7.25-3.252 7.25-7.25S15.998 4.75 12 4.75 4.75 8.002 4.75 12s3.252 7.25 7.25 7.25Zm2.5-8h-1.75V9.5a.75.75 0 0 0-1.5 0v1.75H9.5a.75.75 0 0 0 0 1.5h1.75v1.75a.75.75 0 0 0 1.5 0v-1.75h1.75a.75.75 0 0 0 0-1.5Z"/></svg>
